public/ecosystem/nodejs.svg

<svg fill="none" viewBox="0 0 111 33" xmlns="http://www.w3.org/2000/svg" xmlns:xlink="http://www.w3.org/1999/xlink"><linearGradient id="a" gradientUnits="userSpaceOnUse" x1="34.5132" x2="27.1574" y1="15.5354" y2="30.4484"><stop offset="0" stop-color="#3f873f"/><stop offset=".3296" stop-color="#3f8b3d"/><stop offset=".6367" stop-color="#3e9638"/><stop offset=".9341" stop-color="#3da92e"/><stop offset="1" stop-color="#3dae2b"/></linearGradient><linearGradient id="b" gradientUnits="userSpaceOnUse" x1="30.0088" x2="50.5328" y1="23.3589" y2="8.28841"><stop offset=".1376" stop-color="#3f873f"/><stop offset=".4016" stop-color="#52a044"/><stop offset=".7129" stop-color="#64b749"/><stop offset=".9081" stop-color="#6abf4b"/></linearGradient><linearGradient id="c" gradientUnits="userSpaceOnUse" x1="21.9168" x2="40.5549" y1="22.2608" y2="22.2608"><stop offset=".0919165" stop-color="#6abf4b"/><stop offset=".2871" stop-color="#64b749"/><stop offset=".5984" stop-color="#52a044"/><stop offset=".8624" stop-color="#3f873f"/></linearGradient><clipPath id="d"><path d="m0 0h111v33h-111z"/></clipPath><g clip-path="url(#d)"><path d="m97.6894 32.7407c-.287 0-.5549-.077-.8036-.2118l-2.5446-1.5208c-.3826-.2118-.1913-.2888-.0765-.3273.5166-.1733.6122-.2118 1.1479-.5198.0574-.0385.134-.0192.1914.0193l1.9515 1.1743c.0765.0385.1721.0385.2295 0l7.634-4.4471c.076-.0385.115-.1155.115-.2117v-8.8749c0-.0962-.039-.1732-.115-.2117l-7.634-4.4278c-.0765-.0385-.1722-.0385-.2295 0l-7.6338 4.4278c-.0766.0385-.1148.1347-.1148.2117v8.8749c0 .077.0382.1732.1148.2117l2.0854 1.2129c1.1288.5775 1.8367-.0963 1.8367-.7701v-8.7593c0-.1155.0956-.231.2296-.231h.9757c.1148 0 .2296.0962.2296.231v8.7593c0 1.5209-.8227 2.4064-2.2576 2.4064-.44 0-.7844 0-1.7602-.4812l-2.0089-1.1551c-.4974-.2888-.8035-.8278-.8035-1.4054v-8.8748c0-.5776.3061-1.1166.8035-1.4054l7.6338-4.447c.4783-.2695 1.1288-.2695 1.6071 0l7.6341 4.447c.497.2888.803.8278.803 1.4054v8.8748c0 .5776-.306 1.1166-.803 1.4054l-7.6341 4.447c-.2296.0963-.5165.1733-.8035.1733z" fill="#5fa04e"/><path d="m100.062 26.6379c-3.3486 0-4.0373-1.5401-4.0373-2.8492 0-.1155.0956-.231.2295-.231h.9949c.1148 0 .2105.077.2105.1925.153 1.0203.5931 1.5209 2.6214 1.5209 1.607 0 2.296-.3658 2.296-1.2321 0-.5005-.192-.8663-2.6981-1.1166-2.0854-.2118-3.3864-.6738-3.3864-2.3487 0-1.5593 1.301-2.4834 3.4821-2.4834 2.4494 0 3.6544.8471 3.8074 2.6952 0 .0578-.019.1155-.057.1733-.039.0385-.096.077-.154.077h-1.014c-.095 0-.191-.077-.21-.1733-.23-1.0588-.823-1.4053-2.3915-1.4053-1.7602 0-1.9707.616-1.9707 1.078 0 .5583.2487.7316 2.6212 1.0396 2.353.308 3.463.7508 3.463 2.4064 0 1.6941-1.397 2.6567-3.807 2.6567z" fill="#5fa04e"/><path d="m111.083 17.3202c0 .8086-.67 1.4824-1.474 1.4824-.803 0-1.473-.6546-1.473-1.4824 0-.847.689-1.4823 1.473-1.4823.785 0 1.474.6545 1.474 1.4823zm-2.717 0c0 .6931.555 1.2514 1.224 1.2514.689 0 1.244-.5776 1.244-1.2514 0-.693-.555-1.232-1.244-1.232-.65 0-1.224.539-1.224 1.232zm.689-.8278h.574c.191 0 .574 0 .574.4428 0 .308-.192.3658-.307.4043.23.0192.249.1733.268.385.019.1348.039.3658.077.4428h-.345c0-.077-.057-.5005-.057-.5198-.019-.0962-.057-.1347-.172-.1347h-.287v.6737h-.325zm.306.7316h.248c.211 0 .249-.154.249-.231 0-.231-.153-.231-.249-.231h-.267v.462z" fill="#5fa04e"/><g clip-rule="evenodd" fill-rule="evenodd"><path d="m18.1565 17.4415c0-.3465-.1913-.6737-.4974-.847l-8.09296-4.7166c-.13393-.077-.28699-.1155-.44005-.1347-.01913 0-.07653 0-.07653 0-.15305 0-.30611.0577-.44004.1347l-8.112081 4.6973c-.306116.1733-.497439.5006-.497439.8663l.0191323 12.6289c0 .1733.0956617.3465.2487197.4235.153058.0963.344381.0963.478307 0l4.821331-2.7722c.30612-.1732.49744-.5005.49744-.847v-5.9102c0-.3465.19132-.6738.49744-.847l2.04715-1.1936c.15306-.0963.32525-.1348.49744-.1348s.34438.0385.47831.1348l2.04713 1.1936c.3061.1732.4975.5005.4975.847v5.9102c0 .3465.1913.6738.4974.847l4.7831 2.7722c.153.0963.3443.0963.4974 0 .1531-.077.2487-.2502.2487-.4235z" fill="#fff"/><path d="m57.1482.0577539c-.1531-.0770052-.3444-.0770052-.4784 0-.153.0962561-.2487.2502671-.2487.4235291v12.513317c0 .1155-.0574.231-.1722.3081-.1148.0577-.2295.0577-.3443 0l-2.0281-1.1744c-.3061-.1732-.6696-.1732-.9757 0l-8.1121 4.7166c-.3061.1733-.4974.5005-.4974.847v9.4139c0 .3466.1913.6738.4974.8471l8.1121 4.7166c.3061.1732.6696.1732.9757 0l8.1121-4.7166c.3061-.1733.4975-.5005.4975-.8471v-23.4673c0-.36578-.1914-.69305-.4975-.86631zm-.7462 23.9486461c0 .0962-.0383.1732-.1148.2117l-2.7742 1.6172c-.0765.0385-.1722.0385-.2487 0l-2.7742-1.6172c-.0765-.0385-.1148-.1347-.1148-.2117v-3.2342c0-.0963.0383-.1733.1148-.2118l2.7742-1.6171c.0765-.0385.1722-.0385.2487 0l2.7742 1.6171c.0765.0385.1148.1348.1148.2118z" fill="#fff"/><path d="m84.1431 20.6951c.3062-.1733.4783-.5005.4783-.8471v-2.2909c0-.3465-.1913-.6738-.4783-.847l-8.0547-4.6973c-.3061-.1733-.6696-.1733-.9757 0l-8.1121 4.7165c-.3061.1733-.4974.5006-.4974.8471v9.4139c0 .3465.1913.6738.4974.847l8.0547 4.6203c.3061.1733.6696.1733.9566 0l4.8787-2.7336c.1531-.077.2488-.2503.2488-.4236 0-.1732-.0957-.3465-.2488-.4235l-8.1503-4.7166c-.1531-.0962-.2487-.2502-.2487-.4235v-2.9454c0-.1733.0956-.3466.2487-.4236l2.5446-1.4631c.1531-.0962.3444-.0962.4974 0l2.5446 1.4631c.1531.0963.2487.2503.2487.4236v2.3101c0 .1733.0957.3465.2488.4235.153.0963.3443.0963.4974 0z" fill="#fff"/><path d="m75.4764 20.2525c.0574-.0385.134-.0385.1914 0l1.5497.9048c.0574.0385.0956.0963.0956.1733v1.8096c0 .077-.0382.1348-.0956.1733l-1.5497.9048c-.0574.0385-.134.0385-.1914 0l-1.5497-.9048c-.0574-.0385-.0956-.0963-.0956-.1733v-1.8096c0-.077.0382-.1348.0956-.1733z" fill="#5fa04e"/></g><path d="m31.7207 12.0513c-.3062-.1732-.6697-.1732-.9758 0l-8.0547 4.6781c-.3061.1733-.4783.5005-.4783.8471v9.3753c0 .3466.1913.6738.4783.8471l8.0547 4.6781c.3061.1732.6696.1732.9758 0l8.0546-4.6781c.3062-.1733.4783-.5005.4783-.8471v-9.3753c0-.3466-.1913-.6738-.4783-.8471z" fill="url(#a)"/><path d="m39.7946 16.7294-8.0929-4.6781c-.0765-.0385-.1722-.077-.2487-.0962l-9.0687 15.6128c.0765.0962.1722.1732.2678.231l8.093 4.6781c.2296.1347.4974.1732.7461.0962l8.5139-15.6705c-.0574-.077-.1339-.1348-.2105-.1733z" fill="url(#b)"/><path d="m39.7947 27.7986c.2296-.1348.4018-.3658.4783-.6161l-8.8583-15.247c-.2295-.0385-.4783-.0193-.6887.1155l-8.0356 4.6588 8.6669 15.9016c.1148-.0193.2488-.0578.3636-.1155z" fill="url(#c)"/></g></svg>

<?xml version="1.0" encoding="UTF-8"?>
<svg viewBox="0 0 111 33" fill="none" xmlns="http://www.w3.org/2000/svg">
<g clip-path="url(#clip0_8323_10753)">
<path d="M97.6894 32.7407C97.4024 32.7407 97.1345 32.6637 96.8858 32.5289L94.3412 31.0081C93.9586 30.7963 94.1499 30.7193 94.2647 30.6808C94.7813 30.5075 94.8769 30.469 95.4126 30.161C95.47 30.1225 95.5466 30.1418 95.604 30.1803L97.5555 31.3546C97.632 31.3931 97.7276 31.3931 97.785 31.3546L105.419 26.9075C105.495 26.869 105.534 26.792 105.534 26.6958V17.8209C105.534 17.7247 105.495 17.6477 105.419 17.6092L97.785 13.1814C97.7085 13.1429 97.6128 13.1429 97.5555 13.1814L89.9217 17.6092C89.8451 17.6477 89.8069 17.7439 89.8069 17.8209V26.6958C89.8069 26.7728 89.8451 26.869 89.9217 26.9075L92.0071 28.1204C93.1359 28.6979 93.8438 28.0241 93.8438 27.3503V18.591C93.8438 18.4755 93.9394 18.36 94.0734 18.36H95.0491C95.1639 18.36 95.2787 18.4562 95.2787 18.591V27.3503C95.2787 28.8712 94.456 29.7567 93.0211 29.7567C92.5811 29.7567 92.2367 29.7567 91.2609 29.2755L89.252 28.1204C88.7546 27.8316 88.4485 27.2926 88.4485 26.715V17.8402C88.4485 17.2626 88.7546 16.7236 89.252 16.4348L96.8858 11.9878C97.3641 11.7183 98.0146 11.7183 98.4929 11.9878L106.127 16.4348C106.624 16.7236 106.93 17.2626 106.93 17.8402V26.715C106.93 27.2926 106.624 27.8316 106.127 28.1204L98.4929 32.5674C98.2633 32.6637 97.9764 32.7407 97.6894 32.7407Z" fill="#5FA04E"/>
<path d="M100.062 26.6379C96.7134 26.6379 96.0247 25.0978 96.0247 23.7887C96.0247 23.6732 96.1203 23.5577 96.2542 23.5577H97.2491C97.3639 23.5577 97.4596 23.6347 97.4596 23.7502C97.6126 24.7705 98.0527 25.2711 100.081 25.2711C101.688 25.2711 102.377 24.9053 102.377 24.039C102.377 23.5385 102.185 23.1727 99.6789 22.9224C97.5935 22.7106 96.2925 22.2486 96.2925 20.5737C96.2925 19.0144 97.5935 18.0903 99.7746 18.0903C102.224 18.0903 103.429 18.9374 103.582 20.7855C103.582 20.8433 103.563 20.901 103.525 20.9588C103.486 20.9973 103.429 21.0358 103.371 21.0358H102.357C102.262 21.0358 102.166 20.9588 102.147 20.8625C101.917 19.8037 101.324 19.4572 99.7555 19.4572C97.9953 19.4572 97.7848 20.0732 97.7848 20.5352C97.7848 21.0935 98.0335 21.2668 100.406 21.5748C102.759 21.8828 103.869 22.3256 103.869 23.9812C103.869 25.6753 102.472 26.6379 100.062 26.6379Z" fill="#5FA04E"/>
<path d="M111.083 17.3202C111.083 18.1288 110.413 18.8026 109.609 18.8026C108.806 18.8026 108.136 18.148 108.136 17.3202C108.136 16.4732 108.825 15.8379 109.609 15.8379C110.394 15.8379 111.083 16.4924 111.083 17.3202ZM108.366 17.3202C108.366 18.0133 108.921 18.5716 109.59 18.5716C110.279 18.5716 110.834 17.994 110.834 17.3202C110.834 16.6272 110.279 16.0882 109.59 16.0882C108.94 16.0882 108.366 16.6272 108.366 17.3202ZM109.055 16.4924H109.629C109.82 16.4924 110.203 16.4924 110.203 16.9352C110.203 17.2432 110.011 17.301 109.896 17.3395C110.126 17.3587 110.145 17.5128 110.164 17.7245C110.183 17.8593 110.203 18.0903 110.241 18.1673H109.896C109.896 18.0903 109.839 17.6668 109.839 17.6475C109.82 17.5513 109.782 17.5128 109.667 17.5128H109.38V18.1865H109.055V16.4924ZM109.361 17.224H109.609C109.82 17.224 109.858 17.07 109.858 16.993C109.858 16.762 109.705 16.762 109.609 16.762H109.342V17.224H109.361Z" fill="#5FA04E"/>
<path fill-rule="evenodd" clip-rule="evenodd" d="M18.1565 17.4415C18.1565 17.095 17.9652 16.7678 17.6591 16.5945L9.56614 11.8779C9.43221 11.8009 9.27915 11.7624 9.12609 11.7432C9.10696 11.7432 9.04956 11.7432 9.04956 11.7432C8.89651 11.7432 8.74345 11.8009 8.60952 11.8779L0.497439 16.5752C0.191323 16.7485 0 17.0758 0 17.4415L0.0191323 30.0704C0.0191323 30.2437 0.114794 30.4169 0.267852 30.4939C0.42091 30.5902 0.612233 30.5902 0.746159 30.4939L5.56749 27.7217C5.87361 27.5485 6.06493 27.2212 6.06493 26.8747V20.9645C6.06493 20.618 6.25625 20.2907 6.56237 20.1175L8.60952 18.9239C8.76258 18.8276 8.93477 18.7891 9.10696 18.7891C9.27915 18.7891 9.45134 18.8276 9.58527 18.9239L11.6324 20.1175C11.9385 20.2907 12.1299 20.618 12.1299 20.9645V26.8747C12.1299 27.2212 12.3212 27.5485 12.6273 27.7217L17.4104 30.4939C17.5634 30.5902 17.7547 30.5902 17.9078 30.4939C18.0609 30.4169 18.1565 30.2437 18.1565 30.0704V17.4415Z" fill="white"/>
<path fill-rule="evenodd" clip-rule="evenodd" d="M57.1482 0.0577539C56.9951 -0.0192513 56.8038 -0.0192513 56.6698 0.0577539C56.5168 0.15401 56.4211 0.308021 56.4211 0.481283V12.9946C56.4211 13.1101 56.3637 13.2256 56.2489 13.3027C56.1341 13.3604 56.0194 13.3604 55.9046 13.3027L53.8765 12.1283C53.5704 11.9551 53.2069 11.9551 52.9008 12.1283L44.7887 16.8449C44.4826 17.0182 44.2913 17.3454 44.2913 17.6919V27.1058C44.2913 27.4524 44.4826 27.7796 44.7887 27.9529L52.9008 32.6695C53.2069 32.8427 53.5704 32.8427 53.8765 32.6695L61.9886 27.9529C62.2947 27.7796 62.4861 27.4524 62.4861 27.1058V3.6385C62.4861 3.27272 62.2947 2.94545 61.9886 2.77219L57.1482 0.0577539ZM56.402 24.0064C56.402 24.1026 56.3637 24.1796 56.2872 24.2181L53.513 25.8353C53.4365 25.8738 53.3408 25.8738 53.2643 25.8353L50.4901 24.2181C50.4136 24.1796 50.3753 24.0834 50.3753 24.0064V20.7722C50.3753 20.6759 50.4136 20.5989 50.4901 20.5604L53.2643 18.9433C53.3408 18.9048 53.4365 18.9048 53.513 18.9433L56.2872 20.5604C56.3637 20.5989 56.402 20.6952 56.402 20.7722V24.0064Z" fill="white"/>
<path fill-rule="evenodd" clip-rule="evenodd" d="M84.1431 20.6951C84.4493 20.5218 84.6214 20.1946 84.6214 19.848V17.5571C84.6214 17.2106 84.4301 16.8833 84.1431 16.7101L76.0884 12.0128C75.7823 11.8395 75.4188 11.8395 75.1127 12.0128L67.0006 16.7293C66.6945 16.9026 66.5032 17.2299 66.5032 17.5764V26.9903C66.5032 27.3368 66.6945 27.6641 67.0006 27.8373L75.0553 32.4576C75.3614 32.6309 75.7249 32.6309 76.0119 32.4576L80.8906 29.724C81.0437 29.647 81.1394 29.4737 81.1394 29.3004C81.1394 29.1272 81.0437 28.9539 80.8906 28.8769L72.7403 24.1603C72.5872 24.0641 72.4916 23.9101 72.4916 23.7368V20.7914C72.4916 20.6181 72.5872 20.4448 72.7403 20.3678L75.2849 18.9047C75.438 18.8085 75.6293 18.8085 75.7823 18.9047L78.3269 20.3678C78.48 20.4641 78.5756 20.6181 78.5756 20.7914V23.1015C78.5756 23.2748 78.6713 23.448 78.8244 23.525C78.9774 23.6213 79.1687 23.6213 79.3218 23.525L84.1431 20.6951Z" fill="white"/>
<path fill-rule="evenodd" clip-rule="evenodd" d="M75.4764 20.2525C75.5338 20.214 75.6104 20.214 75.6678 20.2525L77.2175 21.1573C77.2749 21.1958 77.3131 21.2536 77.3131 21.3306V23.1402C77.3131 23.2172 77.2749 23.275 77.2175 23.3135L75.6678 24.2183C75.6104 24.2568 75.5338 24.2568 75.4764 24.2183L73.9267 23.3135C73.8693 23.275 73.8311 23.2172 73.8311 23.1402V21.3306C73.8311 21.2536 73.8693 21.1958 73.9267 21.1573L75.4764 20.2525Z" fill="#5FA04E"/>
<path d="M31.7207 12.0513C31.4145 11.8781 31.051 11.8781 30.7449 12.0513L22.6902 16.7294C22.3841 16.9027 22.2119 17.2299 22.2119 17.5765V26.9518C22.2119 27.2984 22.4032 27.6256 22.6902 27.7989L30.7449 32.477C31.051 32.6502 31.4145 32.6502 31.7207 32.477L39.7753 27.7989C40.0815 27.6256 40.2536 27.2984 40.2536 26.9518V17.5765C40.2536 17.2299 40.0623 16.9027 39.7753 16.7294L31.7207 12.0513Z" fill="url(#paint0_linear_8323_10753)"/>
<path d="M39.7946 16.7294L31.7017 12.0513C31.6252 12.0128 31.5295 11.9743 31.453 11.9551L22.3843 27.5679C22.4608 27.6641 22.5565 27.7411 22.6521 27.7989L30.7451 32.477C30.9747 32.6117 31.2425 32.6502 31.4912 32.5732L40.0051 16.9027C39.9477 16.8257 39.8712 16.7679 39.7946 16.7294Z" fill="url(#paint1_linear_8323_10753)"/>
<path d="M39.7947 27.7986C40.0243 27.6638 40.1965 27.4328 40.273 27.1825L31.4147 11.9355C31.1852 11.897 30.9364 11.9162 30.726 12.051L22.6904 16.7098L31.3573 32.6114C31.4721 32.5921 31.6061 32.5536 31.7209 32.4959L39.7947 27.7986Z" fill="url(#paint2_linear_8323_10753)"/>
</g>
<defs>
<linearGradient id="paint0_linear_8323_10753" x1="34.5132" y1="15.5354" x2="27.1574" y2="30.4484" gradientUnits="userSpaceOnUse">
<stop stop-color="#3F873F"/>
<stop offset="0.3296" stop-color="#3F8B3D"/>
<stop offset="0.6367" stop-color="#3E9638"/>
<stop offset="0.9341" stop-color="#3DA92E"/>
<stop offset="1" stop-color="#3DAE2B"/>
</linearGradient>
<linearGradient id="paint1_linear_8323_10753" x1="30.0088" y1="23.3589" x2="50.5328" y2="8.28841" gradientUnits="userSpaceOnUse">
<stop offset="0.1376" stop-color="#3F873F"/>
<stop offset="0.4016" stop-color="#52A044"/>
<stop offset="0.7129" stop-color="#64B749"/>
<stop offset="0.9081" stop-color="#6ABF4B"/>
</linearGradient>
<linearGradient id="paint2_linear_8323_10753" x1="21.9168" y1="22.2608" x2="40.5549" y2="22.2608" gradientUnits="userSpaceOnUse">
<stop offset="0.0919165" stop-color="#6ABF4B"/>
<stop offset="0.2871" stop-color="#64B749"/>
<stop offset="0.5984" stop-color="#52A044"/>
<stop offset="0.8624" stop-color="#3F873F"/>
</linearGradient>
<clipPath id="clip0_8323_10753">
<rect width="111" height="33" fill="white"/>
</clipPath>
</defs>
</svg>
